X: 13670
T: Follow Me Up To Carlow
R: reel
M: 4/4
K: Adorian
|ABAG EFGE|AGAB cded|ABAG EFGE|eaag a2cB|
ABAG EFGE|AGAB cded|ABAG EFGE|eaag a2AB||
c2ec gcec|B ~G3 BcdB|c2ec gcea|gedg e~A3|
agea g2ed|cAAG EFGB|~A3B cdea|gedg|1 eBcB:|2 a4||

